_includes/icons/color-jpg.svg

<svg fill="#666" height="50" viewBox="0 0 48 48" width="50" xmlns="http://www.w3.org/2000/svg"><path d="m40 45h-32v-42h22l10 10z" fill="#3f51b5"/><g fill="#e8eaf6"><path d="m38.5 14h-9.5v-9.5z"/><path d="m17.074219 23.046875h2.011719v6.890625c0 .964844-.269532 1.742188-.808594 2.324219-.539063.582031-1.230469.875-2.078125.875-.914063 0-1.621094-.269531-2.125-.8125-.507813-.542969-.761719-1.296875-.761719-2.261719h2.019531c0 .9375.289063 1.40625.867188 1.40625.582031 0 .875-.542969.875-1.625z"/><path d="m22.671875 29.5v3.5h-2.007812v-9.953125h3.390625c.984375 0 1.769531.304688 2.351562.917969.585938.609375.878906 1.402344.878906 2.378906 0 .972656-.289062 1.742188-.867187 2.308594s-1.378906.847656-2.40625.847656zm0-1.675781h1.382813c.382812 0 .679687-.125.886718-.375.210938-.25.316407-.613281.316407-1.09375 0-.496094-.105469-.890625-.320313-1.1875-.214844-.292969-.503906-.441406-.863281-.445313h-1.398438v3.101563z"/><path d="m35.394531 31.871094c-.386718.417969-.863281.734375-1.425781.949219-.5625.210937-1.179687.316406-1.847656.316406-1.144531 0-2.03125-.355469-2.667969-1.0625-.632812-.710938-.960937-1.738281-.976562-3.09375v-1.792969c0-1.371094.300781-2.425781.898437-3.167969.597656-.738281 1.472656-1.109375 2.621094-1.109375 1.078125 0 1.894531.265625 2.445312.800782.546875.53125.867188 1.367187.953125 2.507812h-1.957031c-.054687-.632812-.1875-1.066406-.394531-1.296875-.210938-.226562-.539063-.34375-.984375-.34375-.542969 0-.9375.199219-1.183594.59375-.246094.398438-.375 1.027344-.382812 1.894531v1.804688c0 .90625.136718 1.566406.40625 1.980469.273437.410156.71875.617187 1.335937.617187.398438 0 .71875-.078125.964844-.238281l.179687-.125v-1.824219h-1.410156v-1.515625h3.425781z"/></g></svg>

<svg xmlns="http://www.w3.org/2000/svg" viewBox="0 0 48 48" width="50" height="50" fill="#666"><path d="M 40 45 L 8 45 L 8 3 L 30 3 L 40 13 Z" fill="#3f51b5"/><path d="M 38.5 14 L 29 14 L 29 4.5 Z" fill="#e8eaf6"/><path d="M 17.074219 23.046875 L 19.085938 23.046875 L 19.085938 29.9375 C 19.085938 30.902344 18.816406 31.679688 18.277344 32.261719 C 17.738281 32.84375 17.046875 33.136719 16.199219 33.136719 C 15.285156 33.136719 14.578125 32.867188 14.074219 32.324219 C 13.566406 31.78125 13.3125 31.027344 13.3125 30.0625 L 15.332031 30.0625 C 15.332031 31 15.621094 31.46875 16.199219 31.46875 C 16.78125 31.46875 17.074219 30.925781 17.074219 29.84375 Z" fill="#e8eaf6"/><path d="M 22.671875 29.5 L 22.671875 33 L 20.664063 33 L 20.664063 23.046875 L 24.054688 23.046875 C 25.039063 23.046875 25.824219 23.351563 26.40625 23.964844 C 26.992188 24.574219 27.285156 25.367188 27.285156 26.34375 C 27.285156 27.316406 26.996094 28.085938 26.417969 28.652344 C 25.839844 29.21875 25.039063 29.5 24.011719 29.5 Z M 22.671875 27.824219 L 24.054688 27.824219 C 24.4375 27.824219 24.734375 27.699219 24.941406 27.449219 C 25.152344 27.199219 25.257813 26.835938 25.257813 26.355469 C 25.257813 25.859375 25.152344 25.464844 24.9375 25.167969 C 24.722656 24.875 24.433594 24.726563 24.074219 24.722656 L 22.675781 24.722656 L 22.675781 27.824219 Z" fill="#e8eaf6"/><path d="M 35.394531 31.871094 C 35.007813 32.289063 34.53125 32.605469 33.96875 32.820313 C 33.40625 33.03125 32.789063 33.136719 32.121094 33.136719 C 30.976563 33.136719 30.089844 32.78125 29.453125 32.074219 C 28.820313 31.363281 28.492188 30.335938 28.476563 28.980469 L 28.476563 27.1875 C 28.476563 25.816406 28.777344 24.761719 29.375 24.019531 C 29.972656 23.28125 30.847656 22.910156 31.996094 22.910156 C 33.074219 22.910156 33.890625 23.175781 34.441406 23.710938 C 34.988281 24.242188 35.308594 25.078125 35.394531 26.21875 L 33.4375 26.21875 C 33.382813 25.585938 33.25 25.152344 33.042969 24.921875 C 32.832031 24.695313 32.503906 24.578125 32.058594 24.578125 C 31.515625 24.578125 31.121094 24.777344 30.875 25.171875 C 30.628906 25.570313 30.5 26.199219 30.492188 27.066406 L 30.492188 28.871094 C 30.492188 29.777344 30.628906 30.4375 30.898438 30.851563 C 31.171875 31.261719 31.617188 31.46875 32.234375 31.46875 C 32.632813 31.46875 32.953125 31.390625 33.199219 31.230469 L 33.378906 31.105469 L 33.378906 29.28125 L 31.96875 29.28125 L 31.96875 27.765625 L 35.394531 27.765625 Z" fill="#e8eaf6"/></svg>
